icons/woman.svg

<svg width="48" height="48" viewBox="0 0 48 48" fill="none" xmlns="http://www.w3.org/2000/svg">
<path fill-rule="evenodd" clip-rule="evenodd" d="M24.0002 11C25.381 11 26.5002 9.88071 26.5002 8.5C26.5002 7.11929 25.381 6 24.0002 6C22.6195 6 21.5002 7.11929 21.5002 8.5C21.5002 9.88071 22.6195 11 24.0002 11ZM24.0002 13C26.4855 13 28.5002 10.9853 28.5002 8.5C28.5002 6.01472 26.4855 4 24.0002 4C21.515 4 19.5002 6.01472 19.5002 8.5C19.5002 10.9853 21.515 13 24.0002 13Z" fill="black"/>
<path fill-rule="evenodd" clip-rule="evenodd" d="M20.9593 17C19.5902 17 18.6622 17.6651 18.0526 18.5314C17.4891 19.3323 17.1557 20.3598 16.8853 21.2476C16.6844 21.9072 16.6482 22.0457 16.5537 22.407L16.5509 22.418C16.4195 22.9209 16.1859 23.8142 15.3564 26.7461C15.2215 27.2229 15.4883 27.7936 16.0912 27.9594C16.7119 28.1301 17.2864 27.7571 17.4287 27.2539C18.3395 24.0347 18.5348 23.2704 18.6326 22.888L18.6334 22.8848C18.7112 22.5805 18.7386 22.4756 18.947 21.7915C19.2273 20.8713 19.4871 20.134 19.844 19.6267L19.8465 19.6232L19.8545 19.6119L21.543 20.4853L17.5829 34.7995C18.7628 35.1135 20.6376 35.5 24.0007 35.5C27.2591 35.5 29.3016 35.1373 30.4282 34.8349L26.4585 20.4859L28.1448 19.6094L28.157 19.6266C28.5139 20.1339 28.7738 20.8713 29.054 21.7915C29.2624 22.4756 29.2899 22.5805 29.3677 22.8848L29.3685 22.888C29.4662 23.2704 29.6615 24.0347 30.5723 27.2539C30.7147 27.7571 31.2892 28.1301 31.9099 27.9594C32.5128 27.7936 32.7796 27.2229 32.6447 26.7461C31.8446 23.9183 31.5989 22.9869 31.4646 22.4731L31.4473 22.407C31.3529 22.0457 31.3167 21.9073 31.1158 21.2476C30.8454 20.3598 30.512 19.3324 29.9484 18.5314C29.3389 17.6651 28.4109 17 27.0417 17H24.5164L24.5097 17H20.9593ZM33.2978 21.8938C33.425 22.3804 33.6553 23.2619 34.4807 26.1793C34.9479 27.8304 33.9528 29.4658 32.3972 29.8935C31.9545 30.0153 31.5014 30.0298 31.0697 29.95L32.2829 34.3353C32.5541 35.3157 32.069 36.4492 31.0126 36.7425C29.7209 37.1012 27.4877 37.5 24.0007 37.5C20.4648 37.5 18.4295 37.0899 17.0962 36.7341C16.0364 36.4514 15.45 35.3057 15.7437 34.2443L16.9317 29.9499C16.4998 30.0298 16.0466 30.0153 15.6039 29.8935C14.0482 29.4658 13.0532 27.8304 13.5203 26.1793C14.3456 23.2621 14.576 22.3806 14.7032 21.8939L14.7039 21.8913C14.8075 21.4947 14.85 21.3336 15.0608 20.6412C15.3238 19.7778 15.7356 18.4475 16.51 17.3469C17.4209 16.0522 18.8874 15 20.9593 15H24.5097L24.5164 15H27.0417C29.1136 15 30.5801 16.0522 31.4911 17.3469C32.2655 18.4475 32.6772 19.7778 32.9402 20.6412C33.1411 21.3006 33.1891 21.4782 33.2828 21.8362L33.2978 21.8938Z" fill="black"/>
<path fill-rule="evenodd" clip-rule="evenodd" d="M19.0002 39.0138V42.3875C19.0002 43.139 19.5563 43.7745 20.3011 43.8743C21.046 43.974 21.7497 43.5072 21.9474 42.7822L22.868 39.4067C21.632 39.347 20.3656 39.2166 19.0002 39.0138ZM26.1306 39.3999L27.0531 42.7822C27.2508 43.5072 27.9545 43.974 28.6993 43.8743C29.4442 43.7745 30.0002 43.139 30.0002 42.3875V39C28.6343 39.2016 27.3673 39.3354 26.1306 39.3999Z" fill="black"/>
</svg>

<svg
  xmlns="http://www.w3.org/2000/svg"
  width="24"
  height="24"
  viewBox="0 0 24 24"
  fill="none"
  stroke="currentColor"
  stroke-width="2"
  stroke-linecap="round"
  stroke-linejoin="round"
>
  <path
    fill-rule="evenodd"
    d="M24 11a2.5 2.5 0 1 0 0-5 2.5 2.5 0 0 0 0 5m0 2a4.5 4.5 0 1 0 0-9 4.5 4.5 0 0 0 0 9"
    clip-rule="evenodd"
  />
  <path
    fill-rule="evenodd"
    d="M20.96 17c-1.37 0-2.298.665-2.907 1.531-.564.801-.897 1.829-1.168 2.717-.2.66-.237.798-.331 1.159l-.003.011c-.131.503-.365 1.396-1.195 4.328-.134.477.132 1.048.735 1.213.62.171 1.195-.202 1.338-.705.91-3.22 1.106-3.984 1.204-4.366v-.003c.078-.305.106-.41.314-1.094.28-.92.54-1.657.897-2.164l.002-.004.009-.011 1.688.873-3.96 14.315c1.18.314 3.055.7 6.418.7 3.258 0 5.3-.363 6.427-.665l-3.97-14.35 1.687-.876.012.018c.357.507.617 1.244.897 2.165.208.684.236.788.314 1.093v.003c.098.382.294 1.147 1.204 4.366.143.503.717.876 1.338.705.603-.165.87-.736.735-1.213a212 212 0 0 1-1.18-4.273l-.018-.066c-.094-.361-.13-.5-.331-1.16-.27-.887-.604-1.915-1.168-2.716-.61-.866-1.537-1.531-2.906-1.531H20.96m12.338 4.894c.127.486.357 1.368 1.183 4.285a3 3 0 0 1-2.084 3.715 3 3 0 0 1-1.327.056l1.213 4.385c.271.98-.214 2.114-1.27 2.407-1.292.36-3.525.758-7.012.758-3.536 0-5.571-.41-6.905-.766-1.06-.283-1.646-1.428-1.352-2.49l1.188-4.294c-.432.08-.885.065-1.328-.056a3 3 0 0 1-2.084-3.715c.826-2.917 1.056-3.798 1.183-4.285v-.003c.104-.396.147-.557.358-1.25.263-.863.675-2.193 1.449-3.294.91-1.295 2.377-2.347 4.45-2.347h6.082c2.072 0 3.538 1.052 4.45 2.347.774 1.1 1.185 2.43 1.448 3.294.201.66.25.837.343 1.195z"
    clip-rule="evenodd"
  />
  <path
    fill-rule="evenodd"
    d="M19 39.014v3.374a1.5 1.5 0 0 0 2.947.394l.921-3.375A39 39 0 0 1 19 39.014m7.13.386.923 3.382A1.5 1.5 0 0 0 30 42.388V39a41 41 0 0 1-3.87.4"
    clip-rule="evenodd"
  />
</svg>
